X:1
T:I’ve Found Him
T:I’ve Found Him
T:Kenneth Wells
T:Alice Hansche Sorensen
T:Public Domain Courtesy of the Cyber Hymnal™
T:Public Domain Courtesy of the Cyber Hymnal™
C:Kenneth Wells
Z:Public Domain
Z:Courtesy of the Cyber Hymnal™
%%score ( 1 2 ) ( 3 4 )
L:1/8
Q:1/4=110
M:4/4
K:D
V:1 treble 
V:2 treble 
V:3 bass 
V:4 bass 
V:1
 !fermata![FA]>[EG] | [DF]3 [DF] [FA]2 [^E^G]2 | [GB]2 [FA]4 [Gc]>[GB] | %3
w: 1.~Oh, I|sought so long for|some- thing, That would|
w: 2.~My poor|heart was oh so|hun- gry, And the|
w: 3.~Since I’ve|found my bless- èd|Sav- ior, Life is|
 E3 [DF] [EG][^DF][EG][CA] | [DF]4 [FA]3 [EG] | [DF]3 [DF] [FA]2 [Fd]2 | [Gd]4 [GB]2 cB | %7
w: give me joy and peace with-|in; Till at|last I came to|Je- sus And He|
w: world was full of sin and|strife; But one|day I met my|Sav- ior A- nd|
w: filled with peace and per- fect|love; And my|gaze that once was|earth- ward, Now is|
 [FA]3 [DF] [FA][^E^G][=E=G][CE] | D6 ||"^Refrain" !fermata![Ac]>[GB] | %10
w: cleansed my heart from ev- ’ry|sin.||
w: now I have e- ter- nal|life.|Oh I’ve|
w: firm- ly fixed on Heav’n a-|bove.||
 [EG] [Gc]4 z (3([GB][FA])[EG] | [DF] [FA]4 z [FA]>[FA] | [EG][FA][GB][FA] [Gc]2 [EG]>[GB] | %13
w: |||
w: found Him, yes, * I’ve|found Him, And what|won- ders in my life He has|
w: |||
 [FA]6 !fermata![Ac]>[GB] | [EG] [Gc]4 z | (3([GB][FA])[EG] | [DF] [DFd]4 z !fermata![^Ed]>[=E^G] | %17
w: ||||
w: wrought, Oh I’ve|found Him,|yes, * I’ve|found Him, Him for|
w: ||||
 [FA][FA][^E^G][FA] [GB]2 c2 | [Fd]6 |] %19
w: ||
w: whom my soul so long had|sought.|
w: ||
V:2
 x2 | x8 | x8 | E3 x5 | x8 | x8 | x6 ^E2 | x8 | D6 || x2 | x8 | x8 | x8 | x8 | x6 | x2 | x8 | %17
 x6 (A=G) | x6 |] %19
V:3
 !fermata![D,D]>[D,B,] | [D,A,]3 [D,A,] (DA,) [D,B,]2 | [D,C]2 [D,D]4 [A,E]>[A,D] | %3
 [A,C]3 A, A,A,A,[A,,A,] | [D,A,]4 [D,D]3 [D,B,] | [D,A,]3 [D,A,] [D,D]2 [D,=C]2 | %6
 [G,B,]4 [G,D]2 [^G,D][G,D] | [A,D]3 [A,,A,] [A,,A,][B,,A,][B,,A,][A,,G,] | [D,F,]6 || z2 | %10
 A,,2 ([E,A,C][E,A,C][E,A,C][E,A,C]) z2 | [D,,D,]2 ([D,F,A,][D,F,A,][D,F,A,][D,F,A,]) z2 | %12
 A,,2 [E,A,C]2 [A,CE]2 [E,A,C]2 | (DDCB, A,2) z2 | A,,2 ([E,A,C][E,A,C][E,A,C][E,A,C]) | z2 | %16
 B,,2 ([B,,F,B,][B,,F,B,][B,,F,B,][B,,F,B,]) !fermata![_B,,_B,]2 | [A,,A,]2 (B,A,) [E,C]2 A,2 | %18
 [D,A,]6 |] %19
V:4
 x2 | x4 D,2 x2 | x8 | x3 A, A,A,A, x | x8 | x8 | x8 | x8 | x6 || x2 | x8 | x8 | x8 | D,6 x2 | x6 | %15
 x2 | x8 | x6 A,2 | x6 |] %19

